img/floor.svg

<svg width="1384" height="250" fill="none" xmlns="http://www.w3.org/2000/svg">
  <g clip-path="url(#a)">
    <path d="M87.5808 189.002c-3.7991.3-4.699-1.599-1.8996-4.299 2.7994-2.699 2.0996-3.899-1.5996-2.699-3.6992 1.2-4.899-.5-2.7995-3.699 2.0996-3.2 1.0999-4.199-2.1994-2.2-3.2993 2-4.8989.7-3.5992-2.999s.1-4.399-2.5994-1.7c-2.6995 2.7-4.5991 1.8-4.1992-1.999.3999-3.8-.8998-4.3-2.8994-1-1.9996 3.299-4.0991 2.799-4.599-1-.4999-3.799-1.8995-3.999-3.0993-.3-1.1997 3.599-3.2992 3.699-4.6989.1-1.2997-3.599-2.6995-3.399-3.0994.4-.4 3.799-2.3995 4.299-4.4991 1.1-2.0995-3.2-3.3991-2.7-2.8992 1.099.4999 3.8-1.2998 4.799-4.1992 2.2-2.7994-2.599-3.9991-1.8-2.5994 1.8 1.3997 3.599-.2 4.999-3.4993 3.099-3.2992-1.9-4.299-.9-2.0995 2.299 2.1995 3.2.8998 4.899-2.6995 3.8-3.5992-1.1-4.399.2-1.4996 2.699 2.8993 2.499 1.9996 4.499-1.7996 4.299-3.7992-.2-4.1991 1.2-.8998 2.999 3.3993 1.8 2.9994 3.9-.6998 4.599-3.6992.7-3.7993 2.1-.1001 3.1 3.6992 1 3.8992 3.099.3 4.699-3.5992 1.599-3.2993 2.899.5998 3.099 3.8992.2 4.4991 2.1 1.3998 4.499-3.0994 2.4-2.4994 3.599 1.2997 2.8 3.7992-.8 4.7989 1.099 2.3994 3.999-2.3995 2.899-1.5996 4.099 1.8996 2.499 3.4993-1.6 4.999-.1 3.2994 3.399-1.6997 3.5-.5999 4.299 2.3995 2 2.9993-2.3 4.7988-1.2 3.899 2.499-.8998 3.7.4 4.399 2.7995 1.4 2.3994-2.999 4.399-2.299 4.399 1.5s1.3997 4.099 2.9994.7c1.5996-3.5 3.6991-3.3 4.6989.499.8998 3.7 2.2995 3.7 3.0993 0 .7999-3.799 2.8995-3.999 4.5991-.599 1.6997 3.399 3.0994 3.099 2.9994-.8-.1-3.899 1.8995-4.599 4.3989-1.7 2.4995 2.9 3.6993 2.3 2.7995-1.4-.8998-3.699.7998-4.898 3.8992-2.599 3.0993 2.3 4.1991 1.4 2.3995-2-1.7997-3.399-.4-4.898 3.1992-3.499 3.4993 1.5 4.3991.4 1.7997-2.499-2.5995-2.9-1.4998-4.699 2.2994-4.099 3.7992.6 4.2991-.7 1.1998-2.9-3.0993-2.199-2.5995-4.299 1.2997-4.499 3.7991-.3 4.0991-1.599.4998-3.099-3.5992-1.4-3.4991-3.499.2001-4.699 3.6992-1.1 3.5991-2.5-.2001-3.099-3.7991-.6-4.1991-2.7-.8998-4.599 2.9994-2.2 2.4995-3.5-1.1997-3.2Zm-19.9956 30.394c-10.4978 6.298-23.9949 2.799-30.2935-7.599-6.2987-10.497-2.7993-23.994 7.5984-30.293 10.4978-6.299 23.9948-2.799 30.2934 7.598 6.0987 10.498 2.7994 24.095-7.5983 30.294Z" fill="#EDDAC3"/>
    <path d="M56.2875 213.197c7.0125 0 12.6974-5.685 12.6974-12.697 0-7.013-5.6849-12.697-12.6974-12.697s-12.6972 5.684-12.6972 12.697c0 7.012 5.6847 12.697 12.6972 12.697Z" fill="#EDDAC3"/>
    <path d="m75.9834 184.303 3.7991 6.399-43.4906 25.994-3.7991-6.398 43.4906-25.995Z" fill="#EDDAC3"/>
    <path d="m40.191 180.504 6.3987-3.799 25.9943 43.491-6.3986 3.799-25.9944-43.491ZM1371.7 209.298c-.2-2.2 1.4-4.099 3.6-4.299h.6c-.9-3.499-2.6-6.599-4.9-9.198-.1.2-.2.4-.4.6-1.4 1.699-3.9 1.899-5.6.5-1.7-1.4-1.9-3.9-.5-5.599.2-.2.3-.4.5-.5-3-1.8-6.39-2.899-10.09-3.099.1.2.1.499.2.799.2 2.2-1.4 4.1-3.5 4.299-2.2.2-4.1-1.399-4.3-3.599v-.8c-3.6.9-6.8 2.7-9.4 4.999.3.1.5.3.8.5 1.7 1.4 1.9 3.899.5 5.599-1.4 1.7-3.9 1.9-5.6.5-.2-.2-.4-.4-.6-.7-1.8 3.099-2.9 6.599-3.1 10.298.3-.1.6-.2.9-.2 2.1-.2 4.1 1.3 4.3 3.499v.1c.2 2.2-1.4 4.099-3.6 4.299h-.9c1 3.599 2.7 6.799 5.1 9.398.1-.3.3-.5.5-.7 1.4-1.699 3.9-1.899 5.6-.5 1.7 1.4 1.9 3.9.5 5.599l-.6.6c3 1.7 6.5 2.799 10.1 2.999-.1-.2-.1-.499-.2-.799-.2-2.2 1.4-4.1 3.5-4.299 2.2-.2 4.1 1.399 4.3 3.599v.7c3.49-1 6.59-2.7 9.19-4.999-.2-.1-.4-.2-.6-.4-1.7-1.4-1.9-3.899-.5-5.599 1.4-1.7 3.9-1.9 5.6-.5.2.1.3.3.5.4 1.7-2.999 2.8-6.399 3-9.998-.2.1-.4.1-.6.1-2.3.2-4.3-1.4-4.3-3.599Zm-17.99 6.399c-2.6.199-4.8-1.6-5.1-4.2-.2-2.599 1.6-4.799 4.2-5.098 2.6-.2 4.8 1.599 5.1 4.199.2 2.599-1.7 4.899-4.2 5.099Zm-1097.466-1c-.2-2.2 1.4-4.099 3.6-4.299h.599c-.899-3.5-2.599-6.599-4.899-9.198-.1.2-.2.4-.4.6-1.399 1.699-3.899 1.899-5.598.499-1.7-1.399-1.9-3.899-.5-5.598.2-.2.3-.4.5-.5-3-1.8-6.399-2.9-10.098-3.1.1.2.1.5.2.8.2 2.2-1.4 4.099-3.499 4.299-2.2.2-4.099-1.399-4.299-3.599v-.8c-3.6.9-6.799 2.7-9.398 4.999.3.1.499.3.799.5 1.7 1.4 1.9 3.899.5 5.599-1.399 1.699-3.899 1.899-5.599.5-.199-.2-.399-.4-.599-.7-1.8 3.099-2.9 6.598-3.1 10.298.3-.1.6-.2.9-.2 2.1-.2 4.099 1.299 4.299 3.499v.1c.2 2.199-1.4 4.099-3.599 4.299h-.9c1 3.599 2.7 6.799 5.099 9.398.1-.3.3-.5.5-.7 1.4-1.7 3.899-1.899 5.599-.5 1.699 1.4 1.899 3.899.5 5.599l-.6.6c2.999 1.7 6.498 2.799 10.098 2.999-.1-.2-.1-.5-.2-.8-.2-2.199 1.399-4.099 3.499-4.299 2.199-.2 4.099 1.4 4.299 3.6v.699c3.499-.999 6.598-2.699 9.198-4.999-.2-.099-.4-.199-.6-.399-1.7-1.4-1.9-3.9-.5-5.599 1.4-1.7 3.899-1.9 5.599-.5.2.1.3.3.5.4 1.699-3 2.799-6.399 2.999-9.998-.2.1-.4.1-.6.1-2.299.2-4.299-1.4-4.299-3.599Zm-17.996 6.398c-2.599.2-4.799-1.599-5.099-4.199-.2-2.599 1.6-4.799 4.199-5.099 2.6-.2 4.799 1.6 5.099 4.199.2 2.6-1.699 4.899-4.199 5.099Z" fill="#EDDAC3"/>
    <path d="M246.446 188.702s323.73 107.277 544.782 14.297c221.052-92.98 306.032 92.48 433.302 33.593 127.28-58.987 158.77-198.557 158.77-198.557-189.56 31.2932-459.9 81.682-772.932 75.884C371.119 109.52 160.365 41.5342-.00029408 15.14-1.30001 82.1254 27.4937 98.7219 54.1879 126.416c36.0922 33.393 96.2791 65.886 192.2581 62.286Z" fill="#929AB0"/>
    <path d="M253.745 172.506s323.33 85.181 544.282 11.397c220.953-73.784 305.633 73.385 432.803 26.595 127.18-46.79 144.87-139.77 144.87-139.77-183.26 29.294-442.102 57.787-761.333 51.889-241.248-4.499-443.204-24.495-598.5707-49.3896C21.795 86.8245 110.376 199.7 253.745 172.506Z" fill="#717C9A"/>
    <path d="M1383.9-2.65619-1-.556638C1.49946 45.7333-1.49995 155.61 255.144 158.609c0 0 324.13 63.586 545.382 8.498 221.254-55.088 306.234 54.888 433.704 19.896C1350.31 155.11 1379 80.4258 1382.1 68.0285c2.7-1.2997 1.8-70.68469 1.8-70.68469Z" fill="#506085"/>
    <path d="M889.007 236.992c.3 0 2.2-1.9 4.599-4.599 2.9 1.3 5.999 1.9 9.098 1.9 1 3.499 1.7 5.998 1.8 6.298.5.9 5.299.4 6.999-1.2.2-.2.2-2.999 0-6.798 2.799-1.1 5.398-2.799 7.598-4.899 3.199 1.8 5.599 3.199 5.998 3.299 1 .3 4-3.499 4.1-5.798 0-.3-2.1-2.3-4.899-4.899 1.299-3 1.899-6.099 1.899-9.198 3.8-1.2 6.599-2.2 6.899-2.4.8-.8-1.2-6.998-1.2-6.998s-3.099.3-7.398.599c-1.1-2.699-2.8-5.298-4.899-7.498 1.799-3.499 3.099-6.199 3.099-6.498 0-1.2-5.799-4.1-5.799-4.1s-1.999 2.3-4.699 5.599c-2.899-1.2-5.898-1.899-8.898-1.899-1.2-3.7-2.099-6.399-2.299-6.599-.8-.8-6.999 1.2-6.999 1.2s.2 2.999.6 6.998c-2.899 1.1-5.499 2.8-7.798 5.099-3.3-1.699-5.799-2.899-6.199-2.999-1.2 0-4.099 5.799-4.099 5.799s2.2 1.899 5.199 4.399c-1.2 2.799-1.8 5.798-1.9 8.798-3.299.899-5.798 1.599-6.098 1.799-.9.5-.4 5.299 1.199 6.999.2.2 2.8.2 6.399 0 1.1 2.899 2.799 5.599 5.099 7.898-1.7 2.999-3 5.299-3.1 5.599-.299 1 3.4 3.999 5.699 4.099Zm3.799-32.993c3.9-5.499 11.498-6.898 17.097-2.999 5.499 3.899 6.898 11.497 2.999 17.096-3.899 5.599-11.497 6.899-17.096 2.999-5.499-3.899-6.899-11.497-3-17.096Z" fill="#EDDAC3"/>
  </g>
  <defs>
    <clipPath id="a">
      <path fill="#fff" d="M0 0h1384v256H0z"/>
    </clipPath>
  </defs>
</svg>

<svg width="1384" height="250" viewBox="0 0 1384 250" fill="none" xmlns="http://www.w3.org/2000/svg">
<g clip-path="url(#clip0_8_3)">
<path d="M87.5808 189.002C83.7817 189.302 82.8818 187.403 85.6812 184.703C88.4806 182.004 87.7808 180.804 84.0816 182.004C80.3824 183.204 79.1826 181.504 81.2821 178.305C83.3817 175.105 82.382 174.106 79.0827 176.105C75.7834 178.105 74.1838 176.805 75.4835 173.106C76.7832 169.407 75.5835 168.707 72.8841 171.406C70.1846 174.106 68.285 173.206 68.6849 169.407C69.0848 165.607 67.7851 165.107 65.7855 168.407C63.7859 171.706 61.6864 171.206 61.1865 167.407C60.6866 163.608 59.287 163.408 58.0872 167.107C56.8875 170.706 54.788 170.806 53.3883 167.207C52.0886 163.608 50.6888 163.808 50.2889 167.607C49.8889 171.406 47.8894 171.906 45.7898 168.707C43.6903 165.507 42.3907 166.007 42.8906 169.806C43.3905 173.606 41.5908 174.605 38.6914 172.006C35.892 169.407 34.6923 170.206 36.092 173.806C37.4917 177.405 35.892 178.805 32.5927 176.905C29.2935 175.005 28.2937 176.005 30.4932 179.204C32.6927 182.404 31.393 184.103 27.7937 183.004C24.1945 181.904 23.3947 183.204 26.2941 185.703C29.1934 188.202 28.2937 190.202 24.4945 190.002C20.6953 189.802 20.2954 191.202 23.5947 193.001C26.994 194.801 26.5941 196.901 22.8949 197.6C19.1957 198.3 19.0956 199.7 22.7948 200.7C26.494 201.7 26.694 203.799 23.0948 205.399C19.4956 206.998 19.7955 208.298 23.6946 208.498C27.5938 208.698 28.1937 210.598 25.0944 212.997C21.995 215.397 22.595 216.596 26.3941 215.797C30.1933 214.997 31.193 216.896 28.7935 219.796C26.394 222.695 27.1939 223.895 30.6931 222.295C34.1924 220.695 35.6921 222.195 33.9925 225.694C32.2928 229.194 33.3926 229.993 36.392 227.694C39.3913 225.394 41.1908 226.494 40.291 230.193C39.3912 233.893 40.691 234.592 43.0905 231.593C45.4899 228.594 47.4895 229.294 47.4895 233.093C47.4895 236.892 48.8892 237.192 50.4889 233.793C52.0885 230.293 54.188 230.493 55.1878 234.292C56.0876 237.992 57.4873 237.992 58.2871 234.292C59.087 230.493 61.1866 230.293 62.8862 233.693C64.5859 237.092 65.9856 236.792 65.8856 232.893C65.7856 228.994 67.7851 228.294 70.2845 231.193C72.784 234.093 73.9838 233.493 73.084 229.793C72.1842 226.094 73.8838 224.895 76.9832 227.194C80.0825 229.494 81.1823 228.594 79.3827 225.194C77.583 221.795 78.9827 220.296 82.5819 221.695C86.0812 223.195 86.981 222.095 84.3816 219.196C81.7821 216.296 82.8818 214.497 86.681 215.097C90.4802 215.697 90.9801 214.397 87.8808 212.197C84.7815 209.998 85.2813 207.898 89.1805 207.698C92.9796 207.398 93.2796 206.099 89.6803 204.599C86.0811 203.199 86.1812 201.1 89.8804 199.9C93.5796 198.8 93.4795 197.4 89.6803 196.801C85.8812 196.201 85.4812 194.101 88.7805 192.202C91.7799 190.002 91.28 188.702 87.5808 189.002ZM67.5852 219.396C57.0874 225.694 43.5903 222.195 37.2917 211.797C30.993 201.3 34.4924 187.803 44.8901 181.504C55.3879 175.205 68.8849 178.705 75.1835 189.102C81.2822 199.6 77.9829 213.197 67.5852 219.396Z" fill="#EDDAC3"/>
<path d="M56.2875 213.197C63.3 213.197 68.9849 207.512 68.9849 200.5C68.9849 193.487 63.3 187.803 56.2875 187.803C49.275 187.803 43.5903 193.487 43.5903 200.5C43.5903 207.512 49.275 213.197 56.2875 213.197Z" fill="#EDDAC3"/>
<path d="M75.9834 184.303L79.7825 190.702L36.2919 216.696L32.4928 210.298L75.9834 184.303Z" fill="#EDDAC3"/>
<path d="M40.191 180.504L46.5897 176.705L72.584 220.196L66.1854 223.995L40.191 180.504ZM1371.7 209.298C1371.5 207.098 1373.1 205.199 1375.3 204.999H1375.9C1375 201.5 1373.3 198.4 1371 195.801C1370.9 196.001 1370.8 196.201 1370.6 196.401C1369.2 198.1 1366.7 198.3 1365 196.901C1363.3 195.501 1363.1 193.001 1364.5 191.302C1364.7 191.102 1364.8 190.902 1365 190.802C1362 189.002 1358.61 187.903 1354.91 187.703C1355.01 187.903 1355.01 188.202 1355.11 188.502C1355.31 190.702 1353.71 192.602 1351.61 192.801C1349.41 193.001 1347.51 191.402 1347.31 189.202V188.402C1343.71 189.302 1340.51 191.102 1337.91 193.401C1338.21 193.501 1338.41 193.701 1338.71 193.901C1340.41 195.301 1340.61 197.8 1339.21 199.5C1337.81 201.2 1335.31 201.4 1333.61 200C1333.41 199.8 1333.21 199.6 1333.01 199.3C1331.21 202.399 1330.11 205.899 1329.91 209.598C1330.21 209.498 1330.51 209.398 1330.81 209.398C1332.91 209.198 1334.91 210.698 1335.11 212.897V212.997C1335.31 215.197 1333.71 217.096 1331.51 217.296H1330.61C1331.61 220.895 1333.31 224.095 1335.71 226.694C1335.81 226.394 1336.01 226.194 1336.21 225.994C1337.61 224.295 1340.11 224.095 1341.81 225.494C1343.51 226.894 1343.71 229.394 1342.31 231.093L1341.71 231.693C1344.71 233.393 1348.21 234.492 1351.81 234.692C1351.71 234.492 1351.71 234.193 1351.61 233.893C1351.41 231.693 1353.01 229.793 1355.11 229.594C1357.31 229.394 1359.21 230.993 1359.41 233.193V233.893C1362.9 232.893 1366 231.193 1368.6 228.894C1368.4 228.794 1368.2 228.694 1368 228.494C1366.3 227.094 1366.1 224.595 1367.5 222.895C1368.9 221.195 1371.4 220.995 1373.1 222.395C1373.3 222.495 1373.4 222.695 1373.6 222.795C1375.3 219.796 1376.4 216.396 1376.6 212.797C1376.4 212.897 1376.2 212.897 1376 212.897C1373.7 213.097 1371.7 211.497 1371.7 209.298ZM1353.71 215.697C1351.11 215.896 1348.91 214.097 1348.61 211.497C1348.41 208.898 1350.21 206.698 1352.81 206.399C1355.41 206.199 1357.61 207.998 1357.91 210.598C1358.11 213.197 1356.21 215.497 1353.71 215.697ZM256.244 214.697C256.044 212.497 257.644 210.598 259.844 210.398H260.443C259.544 206.898 257.844 203.799 255.544 201.2C255.444 201.4 255.344 201.6 255.144 201.8C253.745 203.499 251.245 203.699 249.546 202.299C247.846 200.9 247.646 198.4 249.046 196.701C249.246 196.501 249.346 196.301 249.546 196.201C246.546 194.401 243.147 193.301 239.448 193.101C239.548 193.301 239.548 193.601 239.648 193.901C239.848 196.101 238.248 198 236.149 198.2C233.949 198.4 232.05 196.801 231.85 194.601V193.801C228.25 194.701 225.051 196.501 222.452 198.8C222.752 198.9 222.951 199.1 223.251 199.3C224.951 200.7 225.151 203.199 223.751 204.899C222.352 206.598 219.852 206.798 218.152 205.399C217.953 205.199 217.753 204.999 217.553 204.699C215.753 207.798 214.653 211.297 214.453 214.997C214.753 214.897 215.053 214.797 215.353 214.797C217.453 214.597 219.452 216.096 219.652 218.296V218.396C219.852 220.595 218.252 222.495 216.053 222.695H215.153C216.153 226.294 217.853 229.494 220.252 232.093C220.352 231.793 220.552 231.593 220.752 231.393C222.152 229.693 224.651 229.494 226.351 230.893C228.05 232.293 228.25 234.792 226.851 236.492L226.251 237.092C229.25 238.792 232.749 239.891 236.349 240.091C236.249 239.891 236.249 239.591 236.149 239.291C235.949 237.092 237.548 235.192 239.648 234.992C241.847 234.792 243.747 236.392 243.947 238.592V239.291C247.446 238.292 250.545 236.592 253.145 234.292C252.945 234.193 252.745 234.093 252.545 233.893C250.845 232.493 250.645 229.993 252.045 228.294C253.445 226.594 255.944 226.394 257.644 227.794C257.844 227.894 257.944 228.094 258.144 228.194C259.843 225.194 260.943 221.795 261.143 218.196C260.943 218.296 260.743 218.296 260.543 218.296C258.244 218.496 256.244 216.896 256.244 214.697ZM238.248 221.095C235.649 221.295 233.449 219.496 233.149 216.896C232.949 214.297 234.749 212.097 237.348 211.797C239.948 211.597 242.147 213.397 242.447 215.996C242.647 218.596 240.748 220.895 238.248 221.095Z" fill="#EDDAC3"/>
<path d="M246.446 188.702C246.446 188.702 570.176 295.979 791.228 202.999C1012.28 110.019 1097.26 295.479 1224.53 236.592C1351.81 177.605 1383.3 38.035 1383.3 38.035C1193.74 69.3282 923.4 119.717 610.368 113.919C371.119 109.52 160.365 41.5342 -0.000294083 15.14C-1.30001 82.1254 27.4937 98.7219 54.1879 126.416C90.2801 159.809 150.467 192.302 246.446 188.702Z" fill="#929AB0"/>
<path d="M253.745 172.506C253.745 172.506 577.075 257.687 798.027 183.903C1018.98 110.119 1103.66 257.288 1230.83 210.498C1358.01 163.708 1375.7 70.728 1375.7 70.728C1192.44 100.022 933.598 128.515 614.367 122.617C373.119 118.118 171.163 98.122 15.7963 73.2274C21.795 86.8245 110.376 199.7 253.745 172.506Z" fill="#717C9A"/>
<path d="M1383.9 -2.65619L-1 -0.556638C1.49946 45.7333 -1.49995 155.61 255.144 158.609C255.144 158.609 579.274 222.195 800.526 167.107C1021.78 112.019 1106.76 221.995 1234.23 187.003C1350.31 155.11 1379 80.4258 1382.1 68.0285C1384.8 66.7288 1383.9 -2.65619 1383.9 -2.65619Z" fill="#506085"/>
<path d="M889.007 236.992C889.307 236.992 891.207 235.092 893.606 232.393C896.506 233.693 899.605 234.293 902.704 234.293C903.704 237.792 904.404 240.291 904.504 240.591C905.004 241.491 909.803 240.991 911.503 239.391C911.703 239.191 911.703 236.392 911.503 232.593C914.302 231.493 916.901 229.794 919.101 227.694C922.3 229.494 924.7 230.893 925.099 230.993C926.099 231.293 929.099 227.494 929.199 225.195C929.199 224.895 927.099 222.895 924.3 220.296C925.599 217.296 926.199 214.197 926.199 211.098C929.999 209.898 932.798 208.898 933.098 208.698C933.898 207.898 931.898 201.7 931.898 201.7C931.898 201.7 928.799 202 924.5 202.299C923.4 199.6 921.7 197.001 919.601 194.801C921.4 191.302 922.7 188.602 922.7 188.303C922.7 187.103 916.901 184.203 916.901 184.203C916.901 184.203 914.902 186.503 912.202 189.802C909.303 188.602 906.304 187.903 903.304 187.903C902.104 184.203 901.205 181.504 901.005 181.304C900.205 180.504 894.006 182.504 894.006 182.504C894.006 182.504 894.206 185.503 894.606 189.502C891.707 190.602 889.107 192.302 886.808 194.601C883.508 192.902 881.009 191.702 880.609 191.602C879.409 191.602 876.51 197.401 876.51 197.401C876.51 197.401 878.71 199.3 881.709 201.8C880.509 204.599 879.909 207.598 879.809 210.598C876.51 211.497 874.011 212.197 873.711 212.397C872.811 212.897 873.311 217.696 874.91 219.396C875.11 219.596 877.71 219.596 881.309 219.396C882.409 222.295 884.108 224.995 886.408 227.294C884.708 230.293 883.408 232.593 883.308 232.893C883.009 233.893 886.708 236.892 889.007 236.992ZM892.806 203.999C896.706 198.5 904.304 197.101 909.903 201C915.402 204.899 916.801 212.497 912.902 218.096C909.003 223.695 901.405 224.995 895.806 221.095C890.307 217.196 888.907 209.598 892.806 203.999Z" fill="#EDDAC3"/>
</g>
<defs>
<clipPath id="clip0_8_3">
<rect width="1384" height="256" fill="white"/>
</clipPath>
</defs>
</svg>
